X:55
T: Nora Criona
S: "Johnny O'Leary of Sliabh Luachra" (#347)
Z: B.Black
L: 1/8
M: 12/8
R: slide
K: G
G3 G2A B/c/BG d2B|G/A/GF G2B A2c B2A|
GED G2A BGB dcB|Aee ede A2B cBA|
GzG G2A BG/A/B d2B|G2G G2B A2c B2A|
GED G2A BG/A/B dcB|A2e ede A2B cBA||
dzd dcd B/c/BG d3|dcd d>cd A2B cBA|
dcd d>cd B2G d2B|A2e ede A2B cBA :|
